producthuntturkey/static/images/svg/linkedin_en.svg

<svg width="156" height="55" viewBox="0 0 156 55" fill="none" xmlns="http://www.w3.org/2000/svg">
<path d="M149.124 1H6.8755C3.63055 1 1 5.25329 1 10.5V44.5C1 49.7467 3.63055 54 6.8755 54H149.124C152.369 54 155 49.7467 155 44.5V10.5C155 5.25329 152.369 1 149.124 1Z" fill="#FFFFFC" stroke="black"/>
<path d="M67.287 22.072C66.891 22.072 66.693 21.868 66.693 21.46V16.267C66.693 15.859 66.897 15.655 67.305 15.655H70.446C70.758 15.655 70.914 15.805 70.914 16.105C70.914 16.417 70.758 16.573 70.446 16.573H67.845V18.364H70.257C70.569 18.364 70.725 18.514 70.725 18.814C70.725 19.126 70.569 19.282 70.257 19.282H67.845V21.46C67.845 21.868 67.659 22.072 67.287 22.072ZM74.4765 22.09C73.8645 22.09 73.3275 21.955 72.8655 21.685C72.4095 21.415 72.0555 21.037 71.8035 20.551C71.5515 20.059 71.4255 19.483 71.4255 18.823C71.4255 18.157 71.5515 17.581 71.8035 17.095C72.0555 16.609 72.4095 16.234 72.8655 15.97C73.3215 15.7 73.8585 15.565 74.4765 15.565C75.0945 15.565 75.6315 15.7 76.0875 15.97C76.5435 16.234 76.8975 16.609 77.1495 17.095C77.4015 17.581 77.5275 18.154 77.5275 18.814C77.5275 19.48 77.4015 20.059 77.1495 20.551C76.8975 21.037 76.5435 21.415 76.0875 21.685C75.6315 21.955 75.0945 22.09 74.4765 22.09ZM74.4765 21.1C75.0585 21.1 75.5115 20.899 75.8355 20.497C76.1595 20.095 76.3215 19.537 76.3215 18.823C76.3215 18.103 76.1595 17.545 75.8355 17.149C75.5175 16.753 75.0645 16.555 74.4765 16.555C73.8945 16.555 73.4415 16.753 73.1175 17.149C72.7935 17.545 72.6315 18.103 72.6315 18.823C72.6315 19.537 72.7935 20.095 73.1175 20.497C73.4415 20.899 73.8945 21.1 74.4765 21.1ZM79.2839 22C78.8939 22 78.6989 21.802 78.6989 21.406V16.213C78.6989 15.823 78.8909 15.628 79.2749 15.628C79.6589 15.628 79.8509 15.823 79.8509 16.213V21.019H82.4609C82.7969 21.019 82.9649 21.181 82.9649 21.505C82.9649 21.835 82.7969 22 82.4609 22H79.2839ZM84.3376 22C83.9476 22 83.7526 21.802 83.7526 21.406V16.213C83.7526 15.823 83.9446 15.628 84.3286 15.628C84.7126 15.628 84.9046 15.823 84.9046 16.213V21.019H87.5146C87.8506 21.019 88.0186 21.181 88.0186 21.505C88.0186 21.835 87.8506 22 87.5146 22H84.3376ZM91.3075 22.09C90.6955 22.09 90.1585 21.955 89.6965 21.685C89.2405 21.415 88.8865 21.037 88.6345 20.551C88.3825 20.059 88.2565 19.483 88.2565 18.823C88.2565 18.157 88.3825 17.581 88.6345 17.095C88.8865 16.609 89.2405 16.234 89.6965 15.97C90.1525 15.7 90.6895 15.565 91.3075 15.565C91.9255 15.565 92.4625 15.7 92.9185 15.97C93.3745 16.234 93.7285 16.609 93.9805 17.095C94.2325 17.581 94.3585 18.154 94.3585 18.814C94.3585 19.48 94.2325 20.059 93.9805 20.551C93.7285 21.037 93.3745 21.415 92.9185 21.685C92.4625 21.955 91.9255 22.09 91.3075 22.09ZM91.3075 21.1C91.8895 21.1 92.3425 20.899 92.6665 20.497C92.9905 20.095 93.1525 19.537 93.1525 18.823C93.1525 18.103 92.9905 17.545 92.6665 17.149C92.3485 16.753 91.8955 16.555 91.3075 16.555C90.7255 16.555 90.2725 16.753 89.9485 17.149C89.6245 17.545 89.4625 18.103 89.4625 18.823C89.4625 19.537 89.6245 20.095 89.9485 20.497C90.2725 20.899 90.7255 21.1 91.3075 21.1ZM97.6037 22.072C97.2977 22.072 97.0877 21.91 96.9737 21.586L95.0927 16.267C95.0267 16.075 95.0387 15.913 95.1287 15.781C95.2247 15.649 95.3837 15.583 95.6057 15.583C95.7677 15.583 95.8937 15.622 95.9837 15.7C96.0737 15.772 96.1457 15.889 96.1997 16.051L97.6397 20.335L99.1517 16.06C99.2657 15.742 99.4577 15.583 99.7277 15.583C99.8717 15.583 99.9857 15.622 100.07 15.7C100.154 15.778 100.226 15.901 100.286 16.069L101.771 20.398L103.256 16.051C103.31 15.895 103.382 15.778 103.472 15.7C103.562 15.622 103.685 15.583 103.841 15.583C104.033 15.583 104.174 15.649 104.264 15.781C104.354 15.913 104.366 16.075 104.3 16.267L102.401 21.595C102.341 21.757 102.263 21.877 102.167 21.955C102.071 22.033 101.942 22.072 101.78 22.072C101.618 22.072 101.489 22.033 101.393 21.955C101.297 21.877 101.219 21.754 101.159 21.586L99.6917 17.419L98.2157 21.595C98.1557 21.757 98.0777 21.877 97.9817 21.955C97.8917 22.033 97.7657 22.072 97.6037 22.072ZM110.472 22.09C109.602 22.09 108.936 21.865 108.474 21.415C108.018 20.959 107.79 20.287 107.79 19.399V16.168C107.79 15.778 107.982 15.583 108.366 15.583C108.75 15.583 108.942 15.778 108.942 16.168V19.39C108.942 19.96 109.071 20.389 109.329 20.677C109.593 20.959 109.974 21.1 110.472 21.1C111.486 21.1 111.993 20.53 111.993 19.39V16.168C111.993 15.778 112.185 15.583 112.569 15.583C112.947 15.583 113.136 15.778 113.136 16.168V19.399C113.136 20.287 112.911 20.959 112.461 21.415C112.011 21.865 111.348 22.09 110.472 22.09ZM116.666 22.09C116.264 22.09 115.871 22.045 115.487 21.955C115.109 21.865 114.779 21.73 114.497 21.55C114.359 21.46 114.275 21.349 114.245 21.217C114.215 21.085 114.224 20.962 114.272 20.848C114.326 20.728 114.407 20.647 114.515 20.605C114.629 20.557 114.758 20.578 114.902 20.668C115.166 20.824 115.445 20.938 115.739 21.01C116.033 21.082 116.342 21.118 116.666 21.118C117.14 21.118 117.485 21.04 117.701 20.884C117.917 20.722 118.025 20.515 118.025 20.263C118.025 20.053 117.947 19.888 117.791 19.768C117.641 19.648 117.38 19.549 117.008 19.471L116.018 19.264C114.89 19.024 114.326 18.445 114.326 17.527C114.326 17.131 114.431 16.786 114.641 16.492C114.851 16.198 115.142 15.97 115.514 15.808C115.886 15.646 116.315 15.565 116.801 15.565C117.161 15.565 117.503 15.61 117.827 15.7C118.151 15.79 118.442 15.922 118.7 16.096C118.82 16.18 118.892 16.285 118.916 16.411C118.94 16.531 118.925 16.645 118.871 16.753C118.817 16.855 118.73 16.927 118.61 16.969C118.496 17.005 118.361 16.978 118.205 16.888C117.983 16.762 117.758 16.672 117.53 16.618C117.302 16.564 117.056 16.537 116.792 16.537C116.378 16.537 116.054 16.624 115.82 16.798C115.586 16.972 115.469 17.2 115.469 17.482C115.469 17.698 115.541 17.872 115.685 18.004C115.829 18.13 116.075 18.229 116.423 18.301L117.404 18.508C117.998 18.634 118.439 18.832 118.727 19.102C119.021 19.372 119.168 19.732 119.168 20.182C119.168 20.56 119.066 20.893 118.862 21.181C118.658 21.469 118.367 21.694 117.989 21.856C117.617 22.012 117.176 22.09 116.666 22.09ZM125.444 22.09C124.832 22.09 124.295 21.955 123.833 21.685C123.377 21.415 123.023 21.037 122.771 20.551C122.519 20.059 122.393 19.483 122.393 18.823C122.393 18.157 122.519 17.581 122.771 17.095C123.023 16.609 123.377 16.234 123.833 15.97C124.289 15.7 124.826 15.565 125.444 15.565C126.062 15.565 126.599 15.7 127.055 15.97C127.511 16.234 127.865 16.609 128.117 17.095C128.369 17.581 128.495 18.154 128.495 18.814C128.495 19.48 128.369 20.059 128.117 20.551C127.865 21.037 127.511 21.415 127.055 21.685C126.599 21.955 126.062 22.09 125.444 22.09ZM125.444 21.1C126.026 21.1 126.479 20.899 126.803 20.497C127.127 20.095 127.289 19.537 127.289 18.823C127.289 18.103 127.127 17.545 126.803 17.149C126.485 16.753 126.032 16.555 125.444 16.555C124.862 16.555 124.409 16.753 124.085 17.149C123.761 17.545 123.599 18.103 123.599 18.823C123.599 19.537 123.761 20.095 124.085 20.497C124.409 20.899 124.862 21.1 125.444 21.1ZM130.207 22.072C129.847 22.072 129.667 21.886 129.667 21.514V16.159C129.667 15.973 129.712 15.832 129.802 15.736C129.898 15.634 130.021 15.583 130.171 15.583C130.309 15.583 130.411 15.61 130.477 15.664C130.549 15.712 130.633 15.796 130.729 15.916L133.942 20.083V16.132C133.942 15.766 134.122 15.583 134.482 15.583C134.836 15.583 135.013 15.766 135.013 16.132V21.532C135.013 21.7 134.971 21.832 134.887 21.928C134.803 22.024 134.689 22.072 134.545 22.072C134.407 22.072 134.296 22.045 134.212 21.991C134.134 21.937 134.047 21.85 133.951 21.73L130.738 17.554V21.514C130.738 21.886 130.561 22.072 130.207 22.072Z" fill="black"/>
<path d="M68.7 41C68.232 41 67.878 40.88 67.638 40.64C67.398 40.388 67.278 40.034 67.278 39.578V29.696C67.278 29.24 67.398 28.892 67.638 28.652C67.878 28.4 68.226 28.274 68.682 28.274C69.606 28.274 70.068 28.748 70.068 29.696V38.642H74.892C75.696 38.642 76.098 39.032 76.098 39.812C76.098 40.604 75.696 41 74.892 41H68.7ZM78.9104 30.542C78.4064 30.542 78.0164 30.428 77.7404 30.2C77.4764 29.96 77.3444 29.624 77.3444 29.192C77.3444 28.748 77.4764 28.412 77.7404 28.184C78.0164 27.944 78.4064 27.824 78.9104 27.824C79.9424 27.824 80.4584 28.28 80.4584 29.192C80.4584 30.092 79.9424 30.542 78.9104 30.542ZM78.9104 41.144C78.4664 41.144 78.1244 41.018 77.8844 40.766C77.6564 40.502 77.5424 40.136 77.5424 39.668V33.512C77.5424 32.516 77.9984 32.018 78.9104 32.018C79.3424 32.018 79.6724 32.15 79.9004 32.414C80.1404 32.666 80.2604 33.032 80.2604 33.512V39.668C80.2604 40.136 80.1464 40.502 79.9184 40.766C79.6904 41.018 79.3544 41.144 78.9104 41.144ZM83.9068 41.162C82.9948 41.162 82.5388 40.7 82.5388 39.776V33.386C82.5388 32.474 82.9828 32.018 83.8708 32.018C84.7588 32.018 85.2028 32.474 85.2028 33.386V33.458C85.5028 32.978 85.9048 32.612 86.4088 32.36C86.9128 32.108 87.4768 31.982 88.1008 31.982C89.1448 31.982 89.9248 32.288 90.4408 32.9C90.9568 33.5 91.2148 34.43 91.2148 35.69V39.776C91.2148 40.7 90.7588 41.162 89.8468 41.162C89.4148 41.162 89.0788 41.042 88.8388 40.802C88.6108 40.562 88.4968 40.22 88.4968 39.776V35.816C88.4968 35.204 88.3828 34.766 88.1548 34.502C87.9268 34.226 87.5908 34.088 87.1468 34.088C86.5708 34.088 86.1088 34.268 85.7608 34.628C85.4248 34.988 85.2568 35.468 85.2568 36.068V39.776C85.2568 40.7 84.8068 41.162 83.9068 41.162ZM94.7918 41.162C93.8798 41.162 93.4238 40.7 93.4238 39.776V29.534C93.4238 28.61 93.8798 28.148 94.7918 28.148C95.6918 28.148 96.1418 28.61 96.1418 29.534V35.816H96.1778L98.7878 32.918C99.0518 32.618 99.2918 32.396 99.5078 32.252C99.7238 32.096 100.024 32.018 100.408 32.018C100.78 32.018 101.068 32.114 101.272 32.306C101.476 32.486 101.578 32.72 101.578 33.008C101.578 33.284 101.458 33.554 101.218 33.818L98.9138 36.392L101.524 39.398C101.752 39.686 101.848 39.968 101.812 40.244C101.788 40.508 101.668 40.73 101.452 40.91C101.236 41.078 100.96 41.162 100.624 41.162C100.204 41.162 99.8738 41.084 99.6338 40.928C99.4058 40.772 99.1598 40.532 98.8958 40.208L96.1778 37.184H96.1418V39.776C96.1418 40.7 95.6918 41.162 94.7918 41.162ZM108.09 41.198C107.046 41.198 106.146 41.012 105.39 40.64C104.646 40.256 104.07 39.722 103.662 39.038C103.266 38.342 103.068 37.526 103.068 36.59C103.068 35.678 103.26 34.88 103.644 34.196C104.04 33.5 104.574 32.96 105.246 32.576C105.93 32.18 106.716 31.982 107.604 31.982C108.888 31.982 109.908 32.39 110.664 33.206C111.42 34.01 111.798 35.102 111.798 36.482C111.798 36.938 111.516 37.166 110.952 37.166H105.66C105.756 37.862 106.008 38.372 106.416 38.696C106.836 39.008 107.412 39.164 108.144 39.164C108.432 39.164 108.756 39.134 109.116 39.074C109.488 39.002 109.842 38.882 110.178 38.714C110.526 38.546 110.82 38.516 111.06 38.624C111.3 38.72 111.462 38.888 111.546 39.128C111.642 39.368 111.642 39.62 111.546 39.884C111.462 40.136 111.264 40.346 110.952 40.514C110.532 40.742 110.064 40.91 109.548 41.018C109.044 41.138 108.558 41.198 108.09 41.198ZM107.712 33.782C107.136 33.782 106.668 33.956 106.308 34.304C105.96 34.652 105.744 35.138 105.66 35.762H109.548C109.476 34.442 108.864 33.782 107.712 33.782ZM116.997 41.198C116.229 41.198 115.551 41.012 114.963 40.64C114.387 40.256 113.937 39.722 113.613 39.038C113.289 38.342 113.127 37.52 113.127 36.572C113.127 35.624 113.289 34.808 113.613 34.124C113.937 33.44 114.387 32.912 114.963 32.54C115.551 32.168 116.229 31.982 116.997 31.982C117.585 31.982 118.125 32.108 118.617 32.36C119.109 32.612 119.481 32.948 119.733 33.368V29.534C119.733 28.61 120.183 28.148 121.083 28.148C121.995 28.148 122.451 28.61 122.451 29.534V39.776C122.451 40.7 122.001 41.162 121.101 41.162C120.201 41.162 119.751 40.7 119.751 39.776V39.722C119.511 40.178 119.139 40.538 118.635 40.802C118.143 41.066 117.597 41.198 116.997 41.198ZM117.807 39.164C118.383 39.164 118.851 38.954 119.211 38.534C119.583 38.114 119.769 37.46 119.769 36.572C119.769 35.696 119.583 35.054 119.211 34.646C118.851 34.226 118.383 34.016 117.807 34.016C117.231 34.016 116.763 34.226 116.403 34.646C116.043 35.054 115.863 35.696 115.863 36.572C115.863 37.46 116.043 38.114 116.403 38.534C116.763 38.954 117.231 39.164 117.807 39.164ZM126.364 41.162C125.908 41.162 125.56 41.036 125.32 40.784C125.08 40.532 124.96 40.178 124.96 39.722V29.588C124.96 28.628 125.428 28.148 126.364 28.148C127.288 28.148 127.75 28.628 127.75 29.588V39.722C127.75 40.682 127.288 41.162 126.364 41.162ZM131.617 41.162C130.705 41.162 130.249 40.7 130.249 39.776V33.386C130.249 32.474 130.693 32.018 131.581 32.018C132.469 32.018 132.913 32.474 132.913 33.386V33.458C133.213 32.978 133.615 32.612 134.119 32.36C134.623 32.108 135.187 31.982 135.811 31.982C136.855 31.982 137.635 32.288 138.151 32.9C138.667 33.5 138.925 34.43 138.925 35.69V39.776C138.925 40.7 138.469 41.162 137.557 41.162C137.125 41.162 136.789 41.042 136.549 40.802C136.321 40.562 136.207 40.22 136.207 39.776V35.816C136.207 35.204 136.093 34.766 135.865 34.502C135.637 34.226 135.301 34.088 134.857 34.088C134.281 34.088 133.819 34.268 133.471 34.628C133.135 34.988 132.967 35.468 132.967 36.068V39.776C132.967 40.7 132.517 41.162 131.617 41.162Z" fill="black"/>
<path d="M41.9 12H19.5C17.568 12 16 13.568 16 15.5V37.9C16 39.832 17.568 41.4 19.5 41.4H41.9C43.832 41.4 45.4 39.832 45.4 37.9V15.5C45.4 13.568 43.832 12 41.9 12ZM25.1 23.2V36.5H20.9V23.2H25.1ZM20.9 19.329C20.9 18.349 21.74 17.6 23 17.6C24.26 17.6 25.051 18.349 25.1 19.329C25.1 20.309 24.316 21.1 23 21.1C21.74 21.1 20.9 20.309 20.9 19.329ZM40.5 36.5H36.3C36.3 36.5 36.3 30.018 36.3 29.5C36.3 28.1 35.6 26.7 33.85 26.672H33.794C32.1 26.672 31.4 28.114 31.4 29.5C31.4 30.137 31.4 36.5 31.4 36.5H27.2V23.2H31.4V24.992C31.4 24.992 32.751 23.2 35.467 23.2C38.246 23.2 40.5 25.111 40.5 28.982V36.5Z" fill="black"/>
</svg>

<svg xmlns="http://www.w3.org/2000/svg" width="156" height="55" fill="none" xmlns:v="https://vecta.io/nano"><path d="M149.124 1H6.876C3.631 1 1 5.253 1 10.5v34C1 49.747 3.631 54 6.876 54h142.249c3.245 0 5.876-4.253 5.876-9.5v-34c0-5.247-2.631-9.5-5.876-9.5z" fill="#fffffc" stroke="#000"/><path d="M67.287 22.072c-.396 0-.594-.204-.594-.612v-5.193c0-.408.204-.612.612-.612h3.141c.312 0 .468.15.468.45 0 .312-.156.468-.468.468h-2.601v1.791h2.412c.312 0 .468.15.468.45 0 .312-.156.468-.468.468h-2.412v2.178c0 .408-.186.612-.558.612zm7.189.018c-.612 0-1.149-.135-1.611-.405-.456-.27-.81-.648-1.062-1.134-.252-.492-.378-1.068-.378-1.728 0-.666.126-1.242.378-1.728a2.71 2.71 0 0 1 1.062-1.125c.456-.27.993-.405 1.611-.405s1.155.135 1.611.405a2.71 2.71 0 0 1 1.062 1.125c.252.486.378 1.059.378 1.719 0 .666-.126 1.245-.378 1.737-.252.486-.606.864-1.062 1.134s-.993.405-1.611.405zm0-.99c.582 0 1.035-.201 1.359-.603s.486-.96.486-1.674c0-.72-.162-1.278-.486-1.674-.318-.396-.771-.594-1.359-.594-.582 0-1.035.198-1.359.594s-.486.954-.486 1.674c0 .714.162 1.272.486 1.674s.777.603 1.359.603zm4.807.9c-.39 0-.585-.198-.585-.594v-5.193c0-.39.192-.585.576-.585s.576.195.576.585v4.806h2.61c.336 0 .504.162.504.486 0 .33-.168.495-.504.495h-3.177zm5.054 0c-.39 0-.585-.198-.585-.594v-5.193c0-.39.192-.585.576-.585s.576.195.576.585v4.806h2.61c.336 0 .504.162.504.486 0 .33-.168.495-.504.495h-3.177zm6.97.09c-.612 0-1.149-.135-1.611-.405-.456-.27-.81-.648-1.062-1.134-.252-.492-.378-1.068-.378-1.728 0-.666.126-1.242.378-1.728a2.71 2.71 0 0 1 1.062-1.125c.456-.27.993-.405 1.611-.405s1.155.135 1.611.405a2.71 2.71 0 0 1 1.062 1.125c.252.486.378 1.059.378 1.719 0 .666-.126 1.245-.378 1.737-.252.486-.606.864-1.062 1.134s-.993.405-1.611.405zm0-.99c.582 0 1.035-.201 1.359-.603s.486-.96.486-1.674c0-.72-.162-1.278-.486-1.674-.318-.396-.771-.594-1.359-.594-.582 0-1.035.198-1.359.594s-.486.954-.486 1.674c0 .714.162 1.272.486 1.674s.777.603 1.359.603zm6.296.972c-.306 0-.516-.162-.63-.486l-1.881-5.319c-.066-.192-.054-.354.036-.486.096-.132.255-.198.477-.198.162 0 .288.039.378.117.09.072.162.189.216.351l1.44 4.284 1.512-4.275c.114-.318.306-.477.576-.477.144 0 .258.039.342.117s.156.201.216.369l1.485 4.329 1.485-4.347c.054-.156.126-.273.216-.351s.213-.117.369-.117c.192 0 .333.066.423.198s.102.294.036.486l-1.899 5.328c-.06.162-.138.282-.234.36s-.225.117-.387.117-.291-.039-.387-.117-.174-.201-.234-.369l-1.467-4.167-1.476 4.176c-.06.162-.138.282-.234.36-.09.078-.216.117-.378.117zm12.868.018c-.87 0-1.536-.225-1.998-.675-.456-.456-.684-1.128-.684-2.016v-3.231c0-.39.192-.585.576-.585s.576.195.576.585v3.222c0 .57.129.999.387 1.287.264.282.645.423 1.143.423 1.014 0 1.521-.57 1.521-1.71v-3.222c0-.39.192-.585.576-.585.378 0 .567.195.567.585v3.231c0 .888-.225 1.56-.675 2.016-.45.45-1.113.675-1.989.675zm6.194 0a5.15 5.15 0 0 1-1.179-.135c-.378-.09-.708-.225-.99-.405a.54.54 0 0 1-.252-.333.59.59 0 0 1 .027-.369c.054-.12.135-.201.243-.243.114-.048.243-.027.387.063.264.156.543.27.837.342s.603.108.927.108c.474 0 .819-.078 1.035-.234.216-.162.324-.369.324-.621a.59.59 0 0 0-.234-.495c-.15-.12-.411-.219-.783-.297l-.99-.207c-1.128-.24-1.692-.819-1.692-1.737 0-.396.105-.741.315-1.035s.501-.522.873-.684.801-.243 1.287-.243c.36 0 .702.045 1.026.135a2.97 2.97 0 0 1 .873.396.49.49 0 0 1 .216.315c.024.12.009.234-.045.342a.45.45 0 0 1-.261.216c-.114.036-.249.009-.405-.081a2.56 2.56 0 0 0-.675-.27c-.228-.054-.474-.081-.738-.081-.414 0-.738.087-.972.261s-.351.402-.351.684c0 .216.072.39.216.522.144.126.39.225.738.297l.981.207c.594.126 1.035.324 1.323.594.294.27.441.63.441 1.08 0 .378-.102.711-.306.999s-.495.513-.873.675c-.372.156-.813.234-1.323.234zm8.778 0c-.612 0-1.149-.135-1.611-.405-.456-.27-.81-.648-1.062-1.134-.252-.492-.378-1.068-.378-1.728 0-.666.126-1.242.378-1.728a2.71 2.71 0 0 1 1.062-1.125c.456-.27.993-.405 1.611-.405s1.155.135 1.611.405a2.71 2.71 0 0 1 1.062 1.125c.252.486.378 1.059.378 1.719 0 .666-.126 1.245-.378 1.737-.252.486-.606.864-1.062 1.134s-.993.405-1.611.405zm0-.99c.582 0 1.035-.201 1.359-.603s.486-.96.486-1.674c0-.72-.162-1.278-.486-1.674-.318-.396-.771-.594-1.359-.594-.582 0-1.035.198-1.359.594s-.486.954-.486 1.674c0 .714.162 1.272.486 1.674s.777.603 1.359.603zm4.763.972c-.36 0-.54-.186-.54-.558v-5.355c0-.186.045-.327.135-.423.096-.102.219-.153.369-.153.138 0 .24.027.306.081.072.048.156.132.252.252l3.213 4.167v-3.951c0-.366.18-.549.54-.549.354 0 .531.183.531.549v5.4c0 .168-.042.3-.126.396a.43.43 0 0 1-.342.144c-.138 0-.249-.027-.333-.081-.078-.054-.165-.141-.261-.261l-3.213-4.176v3.96c0 .372-.177.558-.531.558zM68.7 41c-.468 0-.822-.12-1.062-.36-.24-.252-.36-.606-.36-1.062v-9.882c0-.456.12-.804.36-1.044.24-.252.588-.378 1.044-.378.924 0 1.386.474 1.386 1.422v8.946h4.824c.804 0 1.206.39 1.206 1.17 0 .792-.402 1.188-1.206 1.188H68.7zm10.21-10.458c-.504 0-.894-.114-1.17-.342-.264-.24-.396-.576-.396-1.008 0-.444.132-.78.396-1.008.276-.24.666-.36 1.17-.36 1.032 0 1.548.456 1.548 1.368 0 .9-.516 1.35-1.548 1.35zm0 10.602c-.444 0-.786-.126-1.026-.378-.228-.264-.342-.63-.342-1.098v-6.156c0-.996.456-1.494 1.368-1.494.432 0 .762.132.99.396.24.252.36.618.36 1.098v6.156c0 .468-.114.834-.342 1.098-.228.252-.564.378-1.008.378zm4.996.018c-.912 0-1.368-.462-1.368-1.386v-6.39c0-.912.444-1.368 1.332-1.368s1.332.456 1.332 1.368v.072c.3-.48.702-.846 1.206-1.098a3.73 3.73 0 0 1 1.692-.378c1.044 0 1.824.306 2.34.918.516.6.774 1.53.774 2.79v4.086c0 .924-.456 1.386-1.368 1.386-.432 0-.768-.12-1.008-.36-.228-.24-.342-.582-.342-1.026v-3.96c0-.612-.114-1.05-.342-1.314-.228-.276-.564-.414-1.008-.414-.576 0-1.038.18-1.386.54-.336.36-.504.84-.504 1.44v3.708c0 .924-.45 1.386-1.35 1.386zm10.885 0c-.912 0-1.368-.462-1.368-1.386V29.534c0-.924.456-1.386 1.368-1.386.9 0 1.35.462 1.35 1.386v6.282h.036l2.61-2.898c.264-.3.504-.522.72-.666.216-.156.516-.234.9-.234.372 0 .66.096.864.288.204.18.306.414.306.702 0 .276-.12.546-.36.81l-2.304 2.574 2.61 3.006c.228.288.324.57.288.846-.024.264-.144.486-.36.666-.216.168-.492.252-.828.252-.42 0-.75-.078-.99-.234-.228-.156-.474-.396-.738-.72l-2.718-3.024h-.036v2.592c0 .924-.45 1.386-1.35 1.386zm13.298.036c-1.044 0-1.944-.186-2.7-.558a4.21 4.21 0 0 1-1.728-1.602c-.396-.696-.594-1.512-.594-2.448 0-.912.192-1.71.576-2.394a4.24 4.24 0 0 1 1.602-1.62c.684-.396 1.47-.594 2.358-.594 1.284 0 2.304.408 3.06 1.224.756.804 1.134 1.896 1.134 3.276 0 .456-.282.684-.846.684h-5.292c.096.696.348 1.206.756 1.53.42.312.996.468 1.728.468a5.97 5.97 0 0 0 .972-.09 4.11 4.11 0 0 0 1.062-.36c.348-.168.642-.198.882-.09a.81.81 0 0 1 .486.504c.096.24.096.492 0 .756-.084.252-.282.462-.594.63-.42.228-.888.396-1.404.504a6.29 6.29 0 0 1-1.458.18zm-.378-7.416c-.576 0-1.044.174-1.404.522-.348.348-.564.834-.648 1.458h3.888c-.072-1.32-.684-1.98-1.836-1.98zm9.285 7.416c-.768 0-1.446-.186-2.034-.558-.576-.384-1.026-.918-1.35-1.602-.324-.696-.486-1.518-.486-2.466s.162-1.764.486-2.448.774-1.212 1.35-1.584c.588-.372 1.266-.558 2.034-.558a3.5 3.5 0 0 1 1.62.378c.492.252.864.588 1.116 1.008v-3.834c0-.924.45-1.386 1.35-1.386.912 0 1.368.462 1.368 1.386v10.242c0 .924-.45 1.386-1.35 1.386s-1.35-.462-1.35-1.386v-.054c-.24.456-.612.816-1.116 1.08-.492.264-1.038.396-1.638.396zm.81-2.034a1.76 1.76 0 0 0 1.404-.63c.372-.42.558-1.074.558-1.962 0-.876-.186-1.518-.558-1.926a1.76 1.76 0 0 0-1.404-.63 1.76 1.76 0 0 0-1.404.63c-.36.408-.54 1.05-.54 1.926 0 .888.18 1.542.54 1.962a1.76 1.76 0 0 0 1.404.63zm8.557 1.998c-.456 0-.804-.126-1.044-.378s-.36-.606-.36-1.062V29.588c0-.96.468-1.44 1.404-1.44.924 0 1.386.48 1.386 1.44v10.134c0 .96-.462 1.44-1.386 1.44zm5.253 0c-.912 0-1.368-.462-1.368-1.386v-6.39c0-.912.444-1.368 1.332-1.368s1.332.456 1.332 1.368v.072c.3-.48.702-.846 1.206-1.098a3.73 3.73 0 0 1 1.692-.378c1.044 0 1.824.306 2.34.918.516.6.774 1.53.774 2.79v4.086c0 .924-.456 1.386-1.368 1.386-.432 0-.768-.12-1.008-.36-.228-.24-.342-.582-.342-1.026v-3.96c0-.612-.114-1.05-.342-1.314-.228-.276-.564-.414-1.008-.414-.576 0-1.038.18-1.386.54-.336.36-.504.84-.504 1.44v3.708c0 .924-.45 1.386-1.35 1.386zM41.9 12H19.5a3.5 3.5 0 0 0-3.5 3.5v22.4a3.5 3.5 0 0 0 3.5 3.5h22.4a3.5 3.5 0 0 0 3.5-3.5V15.5a3.5 3.5 0 0 0-3.5-3.5zM25.1 23.2v13.3h-4.2V23.2h4.2zm-4.2-3.871c0-.98.84-1.729 2.1-1.729s2.051.749 2.1 1.729c0 .98-.784 1.771-2.1 1.771-1.26 0-2.1-.791-2.1-1.771zM40.5 36.5h-4.2v-7c0-1.4-.7-2.8-2.45-2.828h-.056c-1.694 0-2.394 1.442-2.394 2.828v7h-4.2V23.2h4.2v1.792s1.351-1.792 4.067-1.792c2.779 0 5.033 1.911 5.033 5.782V36.5z" fill="#000"/></svg>
